X:1
T:C Major Oliver Holden, 1800
T:John Newton, 1779 (Hymn 112, Book 1)  66. 86. (S. M.)
T:Bethsaida No copyright. Transcribed from Plain Psalmody, 1800.
%%score [ 1 2 3 4 ]
L:1/8
M:4/4
K:C
V:1 treble nm="Treble" snm="Tr."
V:2 treble nm="Counter" snm="C."
V:3 treble-8 nm="Tenor" snm="T."
V:4 bass nm="Bass" snm="B."
V:1
 c4 | e2 e2 e2 d2 | e6 d2 | B2 G2 c2 c2 | B6 z2 | z8 | z4 z2 ed | c2 c2 c2 A2 | e2 e2 e2 c2 | %9
w: ||||||My *|help- less soul, from|year to year, My|
 d2 d2 c2 c2 | B2 B2 B2 c2 | (dcBA G2) d2 | c4 B4 | c8 |] %14
w: help- less soul, from|year to year, *||||
V:2
 E4 | G2 G2 G2 G2 | G6 G2 | G2 G2 G2 G2 | G6 z2 | z8 | z4 z2 E2 | A2 A2 A2 A2 | G2 G2 G2 G2 | %9
w: 1.~Be-|side the gos- pel|pool, Ap-|poin- ted for the|poor,||My|help- less soul, from|year to year, My|
 G2 G2 G2 G2 | G2 G2 G2 E2 | G4 G4 | G4 F4 | E8 |] %14
w: help- less soul, from|year to year, Has|wai- ted|for a|cure.|
V:3
 G4 | c2 c2 c2 d2 | c6 Bc | d2 e2 e2 c2 | d6 z2 | z4 z2 ed | c2 c2 c2 A2 | e2 e2 e2 c2 | %8
w: |||||My *|help- less soul, from|year to year, My|
 c2 e2 g2 e2 | f4 e4 | d6 c2 | (BABc d2) f2 | e4 d4 | c8 |] %14
w: help- less soul, from|year to|year, *||||
V:4
 C,4 | C,2 C,2 E,2 G,2 | C6 G,2 | G,2 E,2 C,2 C,2 | G,6 G,F, | E,2 E,2 E,2 E,2 | A,4 A,4 | %7
w: ||||* My *|help- less soul, from|year to|
 A,6 E,2 | C,2 C,2 E,2 C,2 | G,4 G,4 | G,6 C2 | G,4 G,4 | G,4 G,4 | C,8 |] %14
w: year, My|help- less soul, from|year to|year, *||||

